X:9
T:The Outlandish Knight
Z:Jack Campin, http://www.campin.me.uk/
S:Northumbrian Minstrelsy
M:6/8
L:1/8
Q:3/8=72
K:Eb
B|B c B (e`f) e|d B B B2                            \
                         B    |B c B  e d  c|B3- B2
B|B c B  e f  e|d B G A2                            \
                        (G/A/)|B c B (A`F) D|E3- E2|]

